X: 3645
T: Bill Sullivan's
R: polka
M: 2/4
K: Gmajor
|:g2 g>e|dB g>e|dB g>e|dB AG|
g2 g>e|dB g>e|dB A>B|AG G2:|
|:Bd dB|ce ed|Bd dA|BA AG/A/|
Bd dB|ce ed|Bd A>B|AG G2:|

